assets/icons/Outline/Setting.svg

<svg width="24" height="24" viewBox="0 0 24 24" fill="none" xmlns="http://www.w3.org/2000/svg">
<path fill-rule="evenodd" clip-rule="evenodd" d="M20.8066 7.62355L20.1842 6.54346C19.6576 5.62954 18.4907 5.31426 17.5755 5.83866V5.83866C17.1399 6.09528 16.6201 6.16809 16.1307 6.04103C15.6413 5.91396 15.2226 5.59746 14.9668 5.16131C14.8023 4.88409 14.7139 4.56833 14.7105 4.24598V4.24598C14.7254 3.72916 14.5304 3.22834 14.17 2.85761C13.8096 2.48688 13.3145 2.2778 12.7975 2.27802H11.5435C11.0369 2.27801 10.5513 2.47985 10.194 2.83888C9.83667 3.19791 9.63715 3.68453 9.63959 4.19106V4.19106C9.62458 5.23686 8.77246 6.07675 7.72655 6.07664C7.40419 6.07329 7.08844 5.98488 6.81121 5.82035V5.82035C5.89604 5.29595 4.72909 5.61123 4.20252 6.52516L3.53433 7.62355C3.00839 8.53633 3.31938 9.70255 4.22998 10.2322V10.2322C4.82188 10.574 5.18651 11.2055 5.18651 11.889C5.18651 12.5725 4.82188 13.204 4.22998 13.5457V13.5457C3.32054 14.0719 3.00921 15.2353 3.53433 16.1453V16.1453L4.1659 17.2345C4.41263 17.6797 4.82658 18.0082 5.31617 18.1474C5.80576 18.2865 6.33062 18.2248 6.7746 17.976V17.976C7.21106 17.7213 7.73117 17.6515 8.21932 17.7821C8.70747 17.9128 9.12321 18.233 9.37414 18.6716C9.53868 18.9488 9.62709 19.2646 9.63044 19.5869V19.5869C9.63044 20.6435 10.4869 21.5 11.5435 21.5H12.7975C13.8505 21.5 14.7055 20.6491 14.7105 19.5961V19.5961C14.7081 19.088 14.9088 18.6 15.2681 18.2407C15.6274 17.8814 16.1155 17.6806 16.6236 17.6831C16.9452 17.6917 17.2596 17.7797 17.5389 17.9393V17.9393C18.4517 18.4653 19.6179 18.1543 20.1476 17.2437V17.2437L20.8066 16.1453C21.0617 15.7074 21.1317 15.1859 21.0012 14.6963C20.8706 14.2067 20.5502 13.7893 20.111 13.5366V13.5366C19.6717 13.2839 19.3514 12.8665 19.2208 12.3769C19.0902 11.8872 19.1602 11.3658 19.4153 10.9279C19.5812 10.6383 19.8214 10.3981 20.111 10.2322V10.2322C21.0161 9.70283 21.3264 8.54343 20.8066 7.63271V7.63271V7.62355Z" stroke="#AFB7C4" stroke-width="1.5" stroke-linecap="round" stroke-linejoin="round"/>
<circle cx="12.1751" cy="11.889" r="2.63616" stroke="#AFB7C4" stroke-width="1.5" stroke-linecap="round" stroke-linejoin="round"/>
</svg>

<?xml version="1.0" encoding="utf-8"?>
<!-- Generator: Adobe Illustrator 25.0.0, SVG Export Plug-In . SVG Version: 6.00 Build 0)  -->
<svg version="1.1" id="Layer_1" xmlns="http://www.w3.org/2000/svg" xmlns:xlink="http://www.w3.org/1999/xlink" x="0px" y="0px"
	 viewBox="0 0 24 24" style="enable-background:new 0 0 24 24;" xml:space="preserve">
<style type="text/css">
	.st0{fill:none;stroke:#AFB7C4;stroke-width:1.5;stroke-linecap:round;stroke-linejoin:round;}
</style>
<path class="st0" d="M20.8,7.6l-0.6-1.1c-0.5-0.9-1.7-1.2-2.6-0.7l0,0c-0.4,0.3-1,0.3-1.4,0.2c-0.5-0.1-0.9-0.4-1.2-0.9
	c-0.2-0.3-0.3-0.6-0.3-0.9l0,0c0-0.5-0.2-1-0.5-1.4s-0.9-0.6-1.4-0.6h-1.3c-0.5,0-1,0.2-1.3,0.6C9.8,3.2,9.6,3.7,9.6,4.2l0,0
	c0,1-0.9,1.9-1.9,1.9C7.4,6.1,7.1,6,6.8,5.8l0,0C5.9,5.3,4.7,5.6,4.2,6.5L3.5,7.6C3,8.5,3.3,9.7,4.2,10.2l0,0c0.6,0.3,1,1,1,1.7
	s-0.4,1.3-1,1.7l0,0c-0.9,0.5-1.2,1.7-0.7,2.6l0,0l0.6,1.1c0.2,0.4,0.7,0.8,1.2,0.9c0.5,0.1,1,0.1,1.5-0.2l0,0
	c0.4-0.3,1-0.3,1.4-0.2c0.5,0.1,0.9,0.5,1.2,0.9c0.2,0.3,0.3,0.6,0.3,0.9l0,0c0,1.1,0.9,1.9,1.9,1.9h1.3c1.1,0,1.9-0.9,1.9-1.9l0,0
	c0-0.5,0.2-1,0.6-1.4c0.4-0.4,0.8-0.6,1.4-0.6c0.3,0,0.6,0.1,0.9,0.3l0,0c0.9,0.5,2.1,0.2,2.6-0.7l0,0l0.7-1.1
	c0.3-0.4,0.3-1,0.2-1.4c-0.1-0.5-0.5-0.9-0.9-1.2l0,0c-0.4-0.3-0.8-0.7-0.9-1.2c-0.1-0.5-0.1-1,0.2-1.4c0.2-0.3,0.4-0.5,0.7-0.7l0,0
	C21,9.7,21.3,8.5,20.8,7.6L20.8,7.6L20.8,7.6z"/>
<circle class="st0" cx="12.2" cy="11.9" r="2.6"/>
</svg>
